X: 43245
T: Wolf, The
R: hornpipe
M: 4/4
K: Aminor
|:A,2C E2A, ^G,3- ^G,2 ^G,|A,2CE2C DEF E2C|F2D B,2A,^G,3E2D|
C3A3B,3^G2A,|A,2CE2Ac3-cBA|c2BF3cBAE2E|
E2FE2DC2B, B,B,B,|A,3A,3^G,6:|A2cB2AB3E3|
ABc f2e^d2^d e2A|A2cB2AB3E3|FGAD2FE2^GB2B|
A2cB2AB3E3|ABc f2e^d2^de2e|f2d Bcde2c ABc|
d2B ^GAB c2AE2e|f2d Bcde2c ABc|d2B ^GAB c2AE2e|
f2d Bcde2c ABc|d2B ^GAB c2AE2e|f2d Bcde2c ABc|
e/f/-f2-f3-f3ez2||

